modules/dripicons/icons/toggles.svg

<svg xmlns="http://www.w3.org/2000/svg" width="92" height="92"><path d="M84 48.8V88c0 2.2-1.8 4-4 4s-4-1.8-4-4V48.8c0-2.2 1.8-4 4-4s4 1.8 4 4zm-4-37.4c2.2 0 4-1.8 4-4V4c0-2.2-1.8-4-4-4s-4 1.8-4 4v3.4c0 2.2 1.8 4 4 4zM23.9 46c0 6.6-5.4 12-11.9 12S0 52.6 0 46s5.4-12 11.9-12 12 5.4 12 12zm-8 0c0-2.2-1.8-4-3.9-4s-4 1.8-4 4 1.8 4 3.9 4 4-1.8 4-4zm42 19.7c0 6.6-5.4 12-11.9 12s-11.9-5.4-11.9-12 5.4-12 11.9-12 11.9 5.3 11.9 12zm-8 0c0-2.2-1.8-4-3.9-4s-3.9 1.8-3.9 4 1.8 4 3.9 4 3.9-1.8 3.9-4zM92 28.6c0 6.6-5.4 12-11.9 12s-11.9-5.4-11.9-12 5.4-12 11.9-12S92 22 92 28.6zm-8 0c0-2.2-1.8-4-3.9-4s-3.9 1.8-3.9 4 1.8 4 3.9 4 3.9-1.7 3.9-4zM46 81.7c-2.2 0-4 1.8-4 4V88c0 2.2 1.8 4 4 4s4-1.8 4-4v-2.3c0-2.2-1.8-4-4-4zm0-33c2.2 0 4-1.8 4-4V4c0-2.2-1.8-4-4-4s-4 1.8-4 4v40.7c0 2.2 1.8 4 4 4zM12 63.3c-2.2 0-4 1.8-4 4V88c0 2.2 1.8 4 4 4s4-1.8 4-4V67.3c0-2.2-1.8-4-4-4zm0-34.4c2.2 0 4-1.8 4-4V4c0-2.2-1.8-4-4-4S8 1.8 8 4v20.9c0 2.2 1.8 4 4 4z"/></svg>

<?xml version="1.0" encoding="utf-8"?>
<!-- Generator: Adobe Illustrator 19.2.1, SVG Export Plug-In . SVG Version: 6.00 Build 0)  -->
<svg version="1.1" id="Layer_1" xmlns="http://www.w3.org/2000/svg" xmlns:xlink="http://www.w3.org/1999/xlink" x="0px" y="0px"
	 width="92px" height="92px" viewBox="0 0 92 92" enable-background="new 0 0 92 92" xml:space="preserve">
<path id="XMLID_1607_" d="M84,48.8V88c0,2.2-1.8,4-4,4s-4-1.8-4-4V48.8c0-2.2,1.8-4,4-4S84,46.6,84,48.8z M80,11.4c2.2,0,4-1.8,4-4
	V4c0-2.2-1.8-4-4-4s-4,1.8-4,4v3.4C76,9.6,77.8,11.4,80,11.4z M23.9,46c0,6.6-5.4,12-11.9,12S0,52.6,0,46s5.4-12,11.9-12
	S23.9,39.4,23.9,46z M15.9,46c0-2.2-1.8-4-3.9-4S8,43.8,8,46s1.8,4,3.9,4S15.9,48.2,15.9,46z M57.9,65.7c0,6.6-5.4,12-11.9,12
	s-11.9-5.4-11.9-12c0-6.6,5.4-12,11.9-12S57.9,59,57.9,65.7z M49.9,65.7c0-2.2-1.8-4-3.9-4s-3.9,1.8-3.9,4c0,2.2,1.8,4,3.9,4
	S49.9,67.9,49.9,65.7z M92,28.6c0,6.6-5.4,12-11.9,12s-11.9-5.4-11.9-12s5.4-12,11.9-12S92,22,92,28.6z M84,28.6c0-2.2-1.8-4-3.9-4
	s-3.9,1.8-3.9,4s1.8,4,3.9,4S84,30.9,84,28.6z M46,81.7c-2.2,0-4,1.8-4,4V88c0,2.2,1.8,4,4,4s4-1.8,4-4v-2.3
	C50,83.5,48.2,81.7,46,81.7z M46,48.7c2.2,0,4-1.8,4-4V4c0-2.2-1.8-4-4-4s-4,1.8-4,4v40.7C42,46.9,43.8,48.7,46,48.7z M12,63.3
	c-2.2,0-4,1.8-4,4V88c0,2.2,1.8,4,4,4s4-1.8,4-4V67.3C16,65.1,14.2,63.3,12,63.3z M12,28.9c2.2,0,4-1.8,4-4V4c0-2.2-1.8-4-4-4
	S8,1.8,8,4v20.9C8,27.1,9.8,28.9,12,28.9z"/>
</svg>
